X:1
T:Boulogne, CMD repeat
T:Boulogne, CMD repeat
T:Johann Michael Haydn (1737–1806)
T:Public Domain Courtesy of the Cyber Hymnal™
C:Johann Michael Haydn (1737–1806)
Z:Public Domain
Z:Courtesy of the Cyber Hymnal™
%%score ( 1 2 ) ( 3 4 )
L:1/8
Q:1/4=97
M:6/8
K:Eb
V:1 treble 
V:2 treble 
V:3 bass 
V:4 bass 
V:1
 [B,E] | [EG]2 [FB] (BA)[EG] | [CG]2 [DF] E z [B,E] | (ED)[B,E] ([B,B][FA])[EG] | %4
 ([EG]2 [DF]) z2 [FB] | (B=A)[DG] (GF)[CE] | [CE]2 [Ce] [Fe]2 [F=A] | (Bc)[Fd] (F[=EG])[_E=A] | %8
 ([E=A]2 [DB]) z2 [FB] | (Bd)[FB] [FB]2 [FB] | (Be)[GB] [GB] z [EB] | %11
 ([Df][Ee])[Fd] ([Fc][GB])[FA] | ([FA]2 [EG]) z2 E | E2 [Ec] (BG)E | E2 [Ec] [EB] z [Ee] | %15
 ([Ee][Ac])[FA] (GA)[DF] | e6- z2 | e6- | e3- (e=d)[Ac] | (Be)[EG] ([GB][FA])[DF] | E3 z2 |] %21
V:2
 x | x3 E2 x | x3 E x2 | B,2 x4 | x6 | E2 C2 x2 | x6 | F2 F x3 | x6 | G2 x4 | E2 x4 | x6 | x5 E | %13
 E2 E2 E x | E2 x4 | x3 E2 x | F3 G x4 | A2 =A B2 _D | _D2 D C2 x | G2 x4 | E3 x2 |] %21
V:3
 [E,G,] | [E,B,]2 [D,B,] [C,E,]2 [B,,G,] | [A,,A,]2 [A,B,] [G,B,] z [G,B,] | %3
 [F,A,]2 [E,G,] (F,B,)[E,C] | [B,,B,]3 z2 [D,B,] | [C,C]2 [B,,D] ([=A,,E][=A,C])[G,B,] | %6
 [F,=A,]2 [F,A,] [=A,,C]2 [E,C] | ([D,B,][C,=A,])[B,,B,] (DC)[F,C] | (C2 B,) z2 [B,,D] | %9
 (DB,)[A,D] [A,D]2 [A,D] | (EB,)[E,E] [E,E] z [E,G,] | (F,G,)[B,,A,] (A,B,)[D,B,] | %12
 [E,B,]3 z2 [G,B,] | [A,C]2 [A,E] (EB,)[G,B,] | [A,C]2 A, [G,B,] z [G,,B,] | %15
 (CE)[A,,C] (B,F,)[B,,A,] | [E,,G,]3 z2 [_D,C] x2 | (B,E)[C,E] [G,,_D]2 [G,,B,] | %18
 [A,,B,]2 [A,,B,] [A,,A,]2 [A,,E] | (EB,)[B,,B,] [B,,B,]2 [B,,A,] | [E,G,]3 z2 |] %21
V:4
 x | x6 | x6 | x3 D,2 x | x6 | x6 | x6 | x3 F,2 x | B,,3 x3 | A,,2 x4 | G,2 x4 | B,,2 D,2 x2 | x6 | %13
 x3 G,2 x | x2 A, x3 | A,,2 B,,2 x2 | x8 | C,2 x4 | x6 | B,,2 x4 | x5 |] %21

